flaticon/medical/finger-2.svg

<svg xmlns="http://www.w3.org/2000/svg" width="32" height="32" viewBox="0 0 24 24">
    <path d="M3.75 15.375C3.75 15.609375 3.5625 15.796875 3.328125 15.796875 3.097656 15.796875 2.90625 15.609375 2.90625 15.375 2.90625 15.140625 3.097656 14.953125 3.328125 14.953125 3.5625 14.953125 3.75 15.140625 3.75 15.375zM5.4375 15.375C5.4375 15.609375 5.25 15.796875 5.015625 15.796875 4.785156 15.796875 4.59375 15.609375 4.59375 15.375 4.59375 15.140625 4.785156 14.953125 5.015625 14.953125 5.25 14.953125 5.4375 15.140625 5.4375 15.375zM3.75 17.0625C3.75 17.292969 3.5625 17.484375 3.328125 17.484375 3.097656 17.484375 2.90625 17.292969 2.90625 17.0625 2.90625 16.828125 3.097656 16.640625 3.328125 16.640625 3.5625 16.640625 3.75 16.828125 3.75 17.0625zM4.59375 16.21875C4.59375 16.453125 4.40625 16.640625 4.171875 16.640625 3.941406 16.640625 3.75 16.453125 3.75 16.21875 3.75 15.984375 3.941406 15.796875 4.171875 15.796875 4.40625 15.796875 4.59375 15.984375 4.59375 16.21875zM5.4375 17.0625C5.4375 17.292969 5.25 17.484375 5.015625 17.484375 4.785156 17.484375 4.59375 17.292969 4.59375 17.0625 4.59375 16.828125 4.785156 16.640625 5.015625 16.640625 5.25 16.640625 5.4375 16.828125 5.4375 17.0625zM6.28125 17.90625C6.28125 18.136719 6.09375 18.328125 5.859375 18.328125 5.628906 18.328125 5.4375 18.136719 5.4375 17.90625 5.4375 17.671875 5.628906 17.484375 5.859375 17.484375 6.09375 17.484375 6.28125 17.671875 6.28125 17.90625zM6.28125 17.90625"/>
    <path d="M 23.777344 7.332031 C 23.398438 6.570312 22.644531 6.09375 21.804688 6.09375 L 13.515625 6.09375 C 14.183594 5.644531 14.75 4.972656 14.75 3.984375 L 14.75 3.5625 L 6.804688 3.5625 C 6.015625 3.5625 5.238281 3.699219 4.496094 3.964844 C 1.808594 4.9375 0 7.507812 0 10.371094 L 0 15.355469 C 0 18.15625 2.277344 20.4375 5.078125 20.4375 L 12.851562 20.4375 C 13.898438 20.4375 14.75 19.585938 14.75 18.539062 L 14.75 18.117188 C 14.75 17.640625 14.574219 17.203125 14.285156 16.871094 C 15.070312 16.542969 15.59375 15.824219 15.59375 14.953125 C 15.59375 14.40625 15.390625 13.910156 15.058594 13.535156 C 15.792969 13.25 16.347656 12.585938 16.425781 11.792969 C 16.480469 11.265625 16.332031 10.734375 16.015625 10.3125 L 21.976562 10.3125 C 22.59375 10.3125 23.175781 10.015625 23.578125 9.492188 C 24.058594 8.867188 24.132812 8.058594 23.777344 7.332031 Z M 22.910156 8.980469 C 22.667969 9.289062 22.328125 9.46875 21.976562 9.46875 L 20.667969 9.46875 L 20.667969 8.800781 L 21.390625 8.078125 C 21.554688 7.914062 21.554688 7.648438 21.390625 7.484375 C 21.222656 7.320312 20.957031 7.320312 20.792969 7.484375 L 19.949219 8.328125 C 19.910156 8.367188 19.878906 8.414062 19.859375 8.464844 C 19.835938 8.515625 19.824219 8.570312 19.824219 8.625 L 19.824219 9.46875 L 9.28125 9.46875 C 9.046875 9.46875 8.859375 9.65625 8.859375 9.890625 C 8.859375 10.125 9.046875 10.3125 9.28125 10.3125 L 14.328125 10.3125 C 14.683594 10.3125 15.027344 10.464844 15.265625 10.730469 C 15.511719 11 15.625 11.347656 15.589844 11.707031 C 15.523438 12.34375 14.9375 12.84375 14.25 12.84375 L 9.703125 12.84375 C 9.46875 12.84375 9.28125 13.03125 9.28125 13.265625 C 9.28125 13.5 9.46875 13.6875 9.703125 13.6875 L 13.527344 13.6875 C 14.199219 13.6875 14.75 14.253906 14.75 14.953125 C 14.75 15.699219 14.148438 16.21875 13.289062 16.21875 L 10.546875 16.21875 C 10.3125 16.21875 10.125 16.40625 10.125 16.640625 C 10.125 16.871094 10.3125 17.0625 10.546875 17.0625 L 12.851562 17.0625 C 13.433594 17.0625 13.90625 17.535156 13.90625 18.117188 L 13.90625 18.539062 C 13.90625 19.121094 13.433594 19.59375 12.851562 19.59375 L 5.078125 19.59375 C 2.742188 19.59375 0.84375 17.691406 0.84375 15.355469 L 0.84375 10.371094 C 0.84375 7.863281 2.425781 5.609375 4.78125 4.757812 C 5.429688 4.523438 6.113281 4.40625 6.804688 4.40625 L 13.84375 4.40625 C 13.46875 5.636719 11.507812 6.042969 11.242188 6.09375 L 7.59375 6.09375 C 7.359375 6.09375 7.171875 6.28125 7.171875 6.515625 C 7.171875 6.75 7.359375 6.9375 7.59375 6.9375 L 21.804688 6.9375 C 22.421875 6.9375 22.835938 7.335938 23.019531 7.707031 C 23.230469 8.136719 23.191406 8.613281 22.910156 8.980469 Z M 22.910156 8.980469"/>
    <path d="M12.65625 7.359375C12.421875 7.359375 12.234375 7.546875 12.234375 7.78125L12.234375 8.625C12.234375 8.859375 12.421875 9.046875 12.65625 9.046875 12.886719 9.046875 13.078125 8.859375 13.078125 8.625L13.078125 7.78125C13.078125 7.546875 12.886719 7.359375 12.65625 7.359375zM13.921875 7.359375C13.6875 7.359375 13.5 7.546875 13.5 7.78125L13.5 8.625C13.5 8.859375 13.6875 9.046875 13.921875 9.046875 14.152344 9.046875 14.34375 8.859375 14.34375 8.625L14.34375 7.78125C14.34375 7.546875 14.152344 7.359375 13.921875 7.359375zM20.246094 11.125L18.757812 12.617188C18.359375 13.015625 18.136719 13.546875 18.136719 14.109375 18.136719 14.671875 18.359375 15.203125 18.757812 15.601562 19.167969 16.011719 19.707031 16.21875 20.246094 16.21875 20.789062 16.21875 21.328125 16.011719 21.738281 15.601562 22.5625 14.777344 22.5625 13.441406 21.738281 12.617188zM21.140625 15.003906C20.648438 15.496094 19.847656 15.496094 19.351562 15.003906 19.113281 14.765625 18.980469 14.449219 18.980469 14.109375 18.980469 13.769531 19.113281 13.453125 19.351562 13.214844L20.246094 12.320312 21.140625 13.214844C21.636719 13.707031 21.636719 14.511719 21.140625 15.003906zM21.140625 15.003906"/>
</svg>

<svg xmlns="http://www.w3.org/2000/svg" width="32" height="32" viewBox="0 0 24 24">
    <path d="M3.75 15.375a.423.423 0 1 1-.842-.001.423.423 0 0 1 .842.001zm0 0M5.438 15.375a.423.423 0 1 1-.842-.001.423.423 0 0 1 .841.001zm0 0M3.75 17.063a.423.423 0 1 1-.845-.002.423.423 0 0 1 .845.002zm0 0M4.594 16.219a.423.423 0 1 1-.842-.001.423.423 0 0 1 .842 0zm0 0M5.438 17.063a.423.423 0 1 1-.846-.002.423.423 0 0 1 .846.002zm0 0M6.281 17.906a.423.423 0 1 1-.845-.001.423.423 0 0 1 .845.001zm0 0"/>
    <path d="M23.777 7.332a2.198 2.198 0 0 0-1.972-1.238h-8.29c.669-.45 1.235-1.121 1.235-2.11v-.421H6.805c-.79 0-1.567.136-2.309.402A6.83 6.83 0 0 0 0 10.37v4.984c0 2.801 2.277 5.082 5.078 5.082h7.774a1.9 1.9 0 0 0 1.898-1.898v-.422c0-.476-.176-.914-.465-1.246.785-.328 1.309-1.047 1.309-1.918a2.13 2.13 0 0 0-.535-1.418c.734-.285 1.289-.95 1.367-1.742a2.111 2.111 0 0 0-.41-1.48h5.96c.618 0 1.2-.297 1.602-.82.48-.626.555-1.434.2-2.161zM22.91 8.98c-.242.31-.582.489-.933.489h-1.309V8.8l.723-.723a.42.42 0 0 0 0-.594.424.424 0 0 0-.598 0l-.844.844a.396.396 0 0 0-.09.137.382.382 0 0 0-.035.16v.844H9.281a.42.42 0 0 0-.422.422.42.42 0 0 0 .422.421h5.047c.356 0 .7.153.938.418.246.27.359.618.324.977-.067.637-.652 1.137-1.34 1.137H9.703a.42.42 0 0 0-.422.422.42.42 0 0 0 .422.421h3.824c.672 0 1.223.567 1.223 1.266 0 .746-.602 1.266-1.46 1.266h-2.743a.423.423 0 0 0 0 .844h2.305c.582 0 1.054.472 1.054 1.054v.422c0 .582-.472 1.055-1.054 1.055H5.078a4.241 4.241 0 0 1-4.234-4.239v-4.984A5.982 5.982 0 0 1 4.78 4.758a5.945 5.945 0 0 1 2.024-.352h7.039c-.375 1.23-2.336 1.637-2.602 1.688H7.594a.42.42 0 0 0-.422.422.42.42 0 0 0 .422.421h14.21c.618 0 1.032.399 1.216.77.21.43.171.906-.11 1.273zm0 0"/>
    <path d="M12.656 7.36a.42.42 0 0 0-.422.421v.844a.423.423 0 0 0 .844 0v-.844a.423.423 0 0 0-.422-.422zm0 0M13.922 7.36a.42.42 0 0 0-.422.421v.844a.423.423 0 0 0 .844 0v-.844a.423.423 0 0 0-.422-.422zm0 0M20.246 11.125l-1.488 1.492a2.102 2.102 0 0 0 0 2.985c.41.41.949.617 1.488.617a2.11 2.11 0 0 0 1.492-3.602zm.895 3.879a1.268 1.268 0 0 1-1.79 0 1.256 1.256 0 0 1-.37-.895c0-.34.132-.656.37-.894l.895-.895.895.895a1.261 1.261 0 0 1 0 1.789zm0 0"/>
</svg>
